korla/apps/scalable/etcher.svg

<svg xmlns="http://www.w3.org/2000/svg" width="64" height="64" version="1">
 <path style="opacity:0.2" d="M 31.653428,4.001896 A 6.4680413,6.4807035 0 0 0 28.266122,4.8664362 L 9.2343039,15.875894 A 6.4680413,6.4807035 0 0 0 6,21.488923 v 22.020341 a 6.4680413,6.4807035 0 0 0 3.2340206,5.612458 L 28.265838,60.13175 a 6.4680413,6.4807035 0 0 0 6.468042,0 L 53.765697,49.121722 a 6.4680413,6.4807035 0 0 0 3.234304,-5.613028 V 21.488353 A 6.4680413,6.4807035 0 0 0 53.765697,15.875324 L 34.73388,4.8658662 A 6.4680413,6.4807035 0 0 0 31.652578,4.001326 Z"/>
 <path style="fill:#c8f178" d="M 31.653428,3.0018958 A 6.4680413,6.4807035 0 0 0 28.266122,3.866436 L 9.2343039,14.875894 A 6.4680413,6.4807035 0 0 0 6,20.488923 v 22.020341 a 6.4680413,6.4807035 0 0 0 3.2340206,5.612458 L 28.265838,59.13175 a 6.4680413,6.4807035 0 0 0 6.468042,0 L 53.765697,48.121722 a 6.4680413,6.4807035 0 0 0 3.234304,-5.613028 V 20.488353 A 6.4680413,6.4807035 0 0 0 53.765697,14.875324 L 34.73388,3.865866 A 6.4680413,6.4807035 0 0 0 31.652578,3.0013258 Z"/>
 <path style="opacity:0.2;fill:#ffffff" d="M 12 41.439453 L 12 42.439453 C 11.999999 43.317296 12.54957 44.280601 13.294922 44.71875 L 30.195312 54.654297 C 30.980286 55.115739 32.019715 55.115734 32.804688 54.654297 L 49.705078 44.71875 C 50.450368 44.280689 51.000057 43.317223 51 42.439453 L 51 41.439453 C 51.000057 42.317223 50.450368 43.280689 49.705078 43.71875 L 32.804688 53.654297 C 32.019715 54.115734 30.980286 54.115739 30.195312 53.654297 L 13.294922 43.71875 C 12.54957 43.280601 11.999999 42.317296 12 41.439453 z"/>
 <path style="fill:#86bd1f" d="M 31.561429,9.0007874 C 31.084468,8.9890311 30.611721,9.1089758 30.192793,9.3549183 L 13.294921,19.288161 C 12.540827,19.731396 11.999945,20.690898 12,21.568663 v 19.871511 c -10e-7,0.877843 0.549569,1.839842 1.294921,2.277991 L 30.19525,53.65392 c 0.784974,0.461442 1.824529,0.461437 2.609501,0 L 49.705077,43.718165 C 50.450367,43.280104 51.000057,42.317944 51,41.440174 v -19.871511 -0.0026 c 5.7e-5,-0.877703 -0.549633,-1.839932 -1.294923,-2.277992 L 32.807208,9.3549183 a 1.8872855,1.9290757 0 0 0 -0.0025,0 C 32.420907,9.1295673 31.998501,9.0109944 31.563886,9.0007874 a 1.8872855,1.9290757 0 0 0 -0.0025,0 z"/>
 <path style="opacity:0.1" d="M 31.560547 9 C 31.083586 8.9882437 30.612287 9.1095263 30.193359 9.3554688 L 13.294922 19.289062 C 12.540828 19.732298 11.999945 20.690594 12 21.568359 L 12 22.568359 C 11.999945 21.690594 12.540828 20.732298 13.294922 20.289062 L 30.193359 10.355469 C 30.612287 10.109526 31.083586 9.988243 31.560547 10 A 1.8872855 1.9290757 0 0 1 31.564453 10 C 31.999068 10.010207 32.420887 10.130118 32.804688 10.355469 A 1.8872855 1.9290757 0 0 0 32.806641 10.355469 L 49.705078 20.287109 C 50.450368 20.725169 51.000057 21.688703 51 22.566406 L 51 21.568359 L 51 21.566406 C 51.000057 20.688703 50.450368 19.725169 49.705078 19.287109 L 32.806641 9.3554688 A 1.8872855 1.9290757 0 0 0 32.804688 9.3554688 C 32.420886 9.1301178 31.999068 9.010207 31.564453 9 A 1.8872855 1.9290757 0 0 0 31.560547 9 z"/>
 <path style="fill:#c8f178" d="M 7.7736003,16.036314 A 6.4680413,6.4806311 0 0 0 6.3237304,18.485485 L 30.083334,32.3233 v 27.516993 a 6.4680413,6.4806311 0 0 0 1.264485,0.158639 6.4680413,6.4806311 0 0 0 1.568848,-0.164205 V 32.3233 L 56.679038,18.4827 a 6.4680413,6.4806311 0 0 0 -1.455404,-2.446386 l -23.723633,13.81555 z"/>
 <path style="fill:#ffffff;opacity:0.2" d="M 31.652344 3.0019531 A 6.4680413 6.4807035 0 0 0 28.265625 3.8671875 L 9.234375 14.875 A 6.4680413 6.4807035 0 0 0 6 20.488281 L 6 21.488281 A 6.4680413 6.4807035 0 0 1 9.234375 15.875 L 28.265625 4.8671875 A 6.4680413 6.4807035 0 0 1 31.652344 4.0019531 L 31.654297 4.0019531 A 6.4680413 6.4807035 0 0 1 34.734375 4.8652344 L 53.765625 15.875 A 6.4680413 6.4807035 0 0 1 57 21.488281 L 57 20.488281 A 6.4680413 6.4807035 0 0 0 53.765625 14.875 L 34.734375 3.8652344 A 6.4680413 6.4807035 0 0 0 31.654297 3.0019531 L 31.652344 3.0019531 z"/>
 <path style="opacity:0.1" d="M 51 21.789062 L 32.916016 32.324219 L 32.916016 33.324219 L 51 22.791016 L 51 21.789062 z M 12 21.791016 L 12 22.791016 L 30.083984 33.324219 L 30.083984 32.324219 L 12 21.791016 z"/>
</svg>

<svg style="clip-rule:evenodd;fill-rule:evenodd;stroke-linejoin:round;stroke-miterlimit:2" version="1.1" viewBox="0 0 64 64" xmlns="http://www.w3.org/2000/svg">
 <path d="m31.653 3.002c-1.186-0.029-2.358 0.27-3.387 0.864l-19.032 11.01c-1.999 1.156-3.234 3.3-3.234 5.613v22.02c0 2.313 1.235 4.456 3.234 5.613l19.032 11.01c1.999 1.156 4.469 1.156 6.468 0l19.032-11.01c1.999-1.157 3.234-3.301 3.234-5.613v-22.021c0-2.312-1.235-4.456-3.234-5.613l-19.032-11.009c-0.939-0.542-1.998-0.84-3.081-0.865v1e-3z" style="fill-rule:nonzero;fill:url(#_Linear1)"/>
 <path d="m31.561 9.001c-0.477-0.012-0.949 0.108-1.368 0.354l-16.898 9.933c-0.754 0.443-1.295 1.403-1.295 2.281v19.871c0 0.878 0.55 1.84 1.295 2.278l16.9 9.936c0.785 0.461 1.825 0.461 2.61 0l16.9-9.936c0.745-0.438 1.295-1.4 1.295-2.278v-19.871-3e-3c0-0.878-0.55-1.84-1.295-2.278l-16.898-9.933h-2e-3c-0.384-0.225-0.806-0.344-1.241-0.354h-3e-3z" style="fill-rule:nonzero;fill:url(#_Linear2)"/>
 <path d="m7.774 16.036c-0.659 0.699-1.154 1.536-1.45 2.449l23.759 13.838v27.517c0.416 0.095 0.839 0.148 1.265 0.159 0.527 0.01 1.054-0.046 1.569-0.164v-27.512l23.762-13.84c-0.298-0.914-0.795-1.749-1.455-2.447l-23.724 13.816-23.726-13.816z" style="fill-rule:nonzero;fill:url(#_Linear3)"/>
 <defs>
  <linearGradient id="_Linear1" x2="1" gradientTransform="matrix(3.46669e-15,-56.6154,56.6154,3.46669e-15,32,59.783)" gradientUnits="userSpaceOnUse">
   <stop style="stop-color:#c0f260" offset="0"/>
   <stop style="stop-color:#c8f178" offset="1"/>
  </linearGradient>
  <linearGradient id="_Linear2" x2="1" gradientTransform="matrix(-.397022 -56.4566 56.4566 -.397022 31.2457 59.9504)" gradientUnits="userSpaceOnUse">
   <stop style="stop-color:#638b19" offset="0"/>
   <stop style="stop-color:#86bd1f" offset="1"/>
  </linearGradient>
  <linearGradient id="_Linear3" x2="1" gradientTransform="matrix(3.42287e-15,-43.6679,55.8997,2.67388e-15,31.9951,59.8335)" gradientUnits="userSpaceOnUse">
   <stop style="stop-color:#c0f260" offset="0"/>
   <stop style="stop-color:#c8f178" offset="1"/>
  </linearGradient>
 </defs>
</svg>
